X: 20704
T: Johnny An Gabha
R: polka
M: 2/4
K: Dmajor
|:D2 FA|BA FA|BA Bc|BA FA|
D2 FA|BA FA|BA Bc|d2 d2:|
|:d2 c2|BA FA|BA Bc|BA FA|
d2 c2|BA FA|BA Bc|d2 d2:|

